icons/LinkHorizontal_filled.svg

<svg width="24" height="24" viewBox="0 0 24 24" fill="none" xmlns="http://www.w3.org/2000/svg">
<path fill-rule="evenodd" clip-rule="evenodd" d="M1.75,12c0,-3.45178 2.79822,-6.25 6.25,-6.25h1.5c0.6904,0 1.25,0.55964 1.25,1.25c0,0.69036 -0.5596,1.25 -1.25,1.25h-1.5c-2.07107,0 -3.75,1.67893 -3.75,3.75c0,2.0711 1.67893,3.75 3.75,3.75h1.5c0.6904,0 1.25,0.5596 1.25,1.25c0,0.6904 -0.5596,1.25 -1.25,1.25h-1.5c-3.45178,0 -6.25,-2.7982 -6.25,-6.25zM6.75,12c0,-0.6904 0.55964,-1.25 1.25,-1.25h8c0.6904,0 1.25,0.5596 1.25,1.25c0,0.6904 -0.5596,1.25 -1.25,1.25h-8c-0.69036,0 -1.25,-0.5596 -1.25,-1.25zM16,5.75c3.4518,0 6.25,2.79822 6.25,6.25c0,3.4518 -2.7982,6.25 -6.25,6.25h-1.5c-0.6904,0 -1.25,-0.5596 -1.25,-1.25c0,-0.6904 0.5596,-1.25 1.25,-1.25h1.5c2.0711,0 3.75,-1.6789 3.75,-3.75c0,-2.07107 -1.6789,-3.75 -3.75,-3.75h-1.5c-0.6904,0 -1.25,-0.55964 -1.25,-1.25c0,-0.69036 0.5596,-1.25 1.25,-1.25z" fill="#002B51"/>
</svg>

<svg width="24" height="24" viewBox="0 0 24 24" fill="none" xmlns="http://www.w3.org/2000/svg">
<path fill-rule="evenodd" clip-rule="evenodd" d="M1.75 12C1.75 8.54822 4.54822 5.75 8 5.75H9.5C10.1904 5.75 10.75 6.30964 10.75 7C10.75 7.69036 10.1904 8.25 9.5 8.25H8C5.92893 8.25 4.25 9.92893 4.25 12C4.25 14.0711 5.92893 15.75 8 15.75H9.5C10.1904 15.75 10.75 16.3096 10.75 17C10.75 17.6904 10.1904 18.25 9.5 18.25H8C4.54822 18.25 1.75 15.4518 1.75 12ZM6.75 12C6.75 11.3096 7.30964 10.75 8 10.75H16C16.6904 10.75 17.25 11.3096 17.25 12C17.25 12.6904 16.6904 13.25 16 13.25H8C7.30964 13.25 6.75 12.6904 6.75 12ZM14.5 5.75C13.8096 5.75 13.25 6.30964 13.25 7C13.25 7.69036 13.8096 8.25 14.5 8.25H16C18.0711 8.25 19.75 9.92893 19.75 12C19.75 14.0711 18.0711 15.75 16 15.75H14.5C13.8096 15.75 13.25 16.3096 13.25 17C13.25 17.6904 13.8096 18.25 14.5 18.25H16C19.4518 18.25 22.25 15.4518 22.25 12C22.25 8.54822 19.4518 5.75 16 5.75H14.5Z" fill="#002B51"/>
</svg>
